X:1
T: Miss Catherine Stewart of Pettyvaich
C:
R:Jig
Q:180
K:F
M:6/8
L:1/16
F4d2 c2A2F2|G2A2F2 E4C2|F4d2 c2A2F2|c2d2e2 f4c2|d2e2f2 c2A2F2|G2A2F2 E4G2|F4d2 c2A2F2|C2D2E2 F6|
F4d2 c2A2F2|G2A2F2 E4C2|F4d2 c2A2F2|c2d2e2 f4c2|d2e2f2 c2A2F2|G2A2F2 E4G2|F4d2 c2A2F2|C2D2E2 F6|
f2c2f2 a2g2f2|e2g2b2 b2g2e2|f2c2f2 a2g2f2|e2f2g2 e2d2c2|d2B2d2 c2B2A2|G2A2F2 E2D2C2|F4d2 c2A2F2|C2D2E2 F6|
f2c2f2 a2g2f2|e2g2b2 b2g2e2|f2c2f2 a2g2f2|d2e2f2 c2B2A2|d2B2d2 c2B2A2|G2A2F2 E2D2C2|F4d2 c2A2F2|C2D2E2 F6||
